src/gui/emoticons/ghost.svg

<svg xmlns="http://www.w3.org/2000/svg" xmlns:xlink="http://www.w3.org/1999/xlink" width="16pt" height="16pt" version="1.1" viewBox="0 0 16 16"><defs><linearGradient id="linear0" x1="64" x2="64" y1="8.531" y2="121.13" gradientTransform="matrix(0.125,0,0,0.125,0,0)" gradientUnits="userSpaceOnUse"><stop offset=".001" style="stop-color:#c7c7c7;stop-opacity:1"/><stop offset=".28" style="stop-color:#cacaca;stop-opacity:1"/><stop offset=".525" style="stop-color:#d5d5d5;stop-opacity:1"/><stop offset=".758" style="stop-color:#e7e7e7;stop-opacity:1"/><stop offset=".947" style="stop-color:#fcfcfc;stop-opacity:1"/></linearGradient><clipPath id="clip1"><path d="M 4 7 L 12 7 L 12 11 L 4 11 Z M 4 7"/></clipPath><clipPath id="clip2"><path d="M 8 7.710938 C 6.808594 7.710938 5.707031 7.613281 4.785156 7.441406 C 4.554688 7.398438 4.351562 7.601562 4.398438 7.828125 C 4.707031 9.328125 6.179688 10.558594 7.996094 10.558594 C 9.984375 10.558594 11.324219 9.289062 11.601562 7.824219 C 11.640625 7.597656 11.441406 7.398438 11.214844 7.441406 C 10.292969 7.613281 9.1875 7.710938 8 7.710938 Z M 8 7.710938"/></clipPath><filter id="alpha" width="100%" height="100%" x="0%" y="0%" filterUnits="objectBoundingBox"><feColorMatrix in="SourceGraphic" type="matrix" values="0 0 0 0 1 0 0 0 0 1 0 0 0 0 1 0 0 0 1 0"/></filter><mask id="mask0"><g filter="url(#alpha)"><rect width="16" height="16" x="0" y="0" style="fill:#000;fill-opacity:.2;stroke:none"/></g></mask><clipPath id="clip3"><rect width="16" height="16" x="0" y="0"/></clipPath><g id="surface5" clip-path="url(#clip3)"><path style="stroke:none;fill-rule:nonzero;fill:#000;fill-opacity:1" d="M 11.21875 7.824219 C 11.082031 8.453125 10.722656 9.027344 10.203125 9.449219 C 9.609375 9.929688 8.847656 10.183594 7.996094 10.183594 C 6.464844 10.183594 5.097656 9.171875 4.78125 7.824219 C 5.742188 7.996094 6.855469 8.085938 8 8.085938 C 9.144531 8.085938 10.257812 7.996094 11.21875 7.824219 M 11.277344 7.4375 C 11.257812 7.4375 11.234375 7.4375 11.214844 7.441406 C 10.292969 7.613281 9.1875 7.710938 8 7.710938 C 6.808594 7.710938 5.707031 7.613281 4.785156 7.441406 C 4.761719 7.4375 4.742188 7.4375 4.722656 7.4375 C 4.519531 7.4375 4.359375 7.621094 4.398438 7.828125 C 4.707031 9.328125 6.179688 10.558594 7.996094 10.558594 C 9.984375 10.558594 11.324219 9.289062 11.601562 7.824219 C 11.640625 7.617188 11.476562 7.4375 11.277344 7.4375 Z M 11.277344 7.4375"/></g><clipPath id="clip4"><path d="M 6 7 L 10 7 L 10 12 L 6 12 Z M 6 7"/></clipPath><clipPath id="clip5"><path d="M 4.785156 7.890625 L 4.785156 12.019531 L 11.144531 12.019531 L 11.144531 7.890625 C 10.199219 8.054688 9.113281 8.144531 8 8.144531 C 6.886719 8.144531 5.800781 8.058594 4.859375 7.894531"/></clipPath><clipPath id="clip6"><path d="M 4 7 L 12 7 L 12 13 L 4 13 Z M 4 7"/></clipPath><clipPath id="clip7"><path d="M 4.785156 7.890625 L 4.785156 12.019531 L 11.144531 12.019531 L 11.144531 7.890625 C 10.199219 8.054688 9.113281 8.144531 8 8.144531 C 6.886719 8.144531 5.800781 8.058594 4.859375 7.894531"/></clipPath><mask id="mask1"><g filter="url(#alpha)"><rect width="16" height="16" x="0" y="0" style="fill:#000;fill-opacity:.301961;stroke:none"/></g></mask><clipPath id="clip8"><rect width="16" height="16" x="0" y="0"/></clipPath><g id="surface8" clip-path="url(#clip8)"><path style="stroke:none;fill-rule:nonzero;fill:#ab3f2e;fill-opacity:1" d="M 9.472656 7.109375 L 9.472656 10.53125 C 9.472656 11.136719 8.980469 11.628906 8.375 11.628906 L 7.761719 11.628906 C 7.152344 11.628906 6.660156 11.136719 6.660156 10.53125 L 6.660156 7.109375 L 9.472656 7.109375 M 9.828125 6.753906 L 6.304688 6.753906 L 6.304688 10.53125 C 6.304688 11.332031 6.957031 11.984375 7.761719 11.984375 L 8.375 11.984375 C 9.175781 11.984375 9.828125 11.332031 9.828125 10.53125 Z M 9.828125 6.753906"/></g><mask id="mask2"><g filter="url(#alpha)"><rect width="16" height="16" x="0" y="0" style="fill:#000;fill-opacity:.301961;stroke:none"/></g></mask><clipPath id="clip9"><rect width="16" height="16" x="0" y="0"/></clipPath><g id="surface11" clip-path="url(#clip9)"><path style="fill:none;stroke-width:3;stroke-linecap:round;stroke-linejoin:miter;stroke:#ab3f2e;stroke-opacity:1;stroke-miterlimit:10" d="M 64.53125 54.03125 L 64.53125 79.5625" transform="matrix(0.125,0,0,0.125,0,0)"/></g></defs><g id="surface1"><path style="stroke:none;fill-rule:nonzero;fill:url(#linear0)" d="M 12.628906 15.347656 C 12.503906 15.347656 12.210938 15.191406 11.953125 15.050781 C 11.464844 14.792969 10.859375 14.472656 10.261719 14.472656 C 9.730469 14.472656 9.335938 14.726562 8.984375 14.949219 C 8.671875 15.148438 8.375 15.335938 8 15.34375 C 7.597656 15.335938 7.300781 15.140625 6.984375 14.9375 C 6.628906 14.707031 6.265625 14.472656 5.742188 14.472656 C 5.144531 14.472656 4.535156 14.792969 4.046875 15.050781 C 3.789062 15.1875 3.488281 15.34375 3.363281 15.34375 C 3.214844 15.34375 2.960938 15.21875 2.949219 15.152344 C 2.949219 15.144531 2.953125 15.128906 2.957031 15.121094 C 2.957031 15.109375 3.222656 13.832031 3.433594 12.554688 C 3.894531 9.785156 3.691406 9.703125 3.476562 9.613281 C 2.019531 9.019531 0.640625 6.898438 0.675781 5.75 C 0.679688 5.503906 0.773438 5.238281 0.917969 5.226562 C 0.929688 5.222656 0.941406 5.222656 0.949219 5.222656 C 0.992188 5.222656 1.003906 5.230469 1.128906 5.386719 C 1.203125 5.480469 1.296875 5.59375 1.433594 5.726562 C 2.074219 6.347656 2.601562 6.625 3.4375 6.785156 C 3.453125 6.785156 3.46875 6.789062 3.484375 6.789062 C 3.542969 6.789062 3.597656 6.769531 3.640625 6.730469 C 3.699219 6.683594 3.734375 6.613281 3.734375 6.539062 L 3.734375 4.824219 C 3.734375 3.789062 4.164062 2.761719 4.917969 2 C 5.71875 1.195312 6.804688 0.75 7.984375 0.75 C 10.316406 0.75 12.285156 2.617188 12.285156 4.824219 L 12.285156 6.539062 C 12.285156 6.613281 12.320312 6.6875 12.378906 6.734375 C 12.421875 6.769531 12.476562 6.789062 12.535156 6.789062 C 12.550781 6.789062 12.570312 6.785156 12.589844 6.78125 C 13.398438 6.597656 14.011719 6.269531 14.574219 5.726562 C 14.710938 5.59375 14.804688 5.476562 14.878906 5.382812 C 15.007812 5.222656 15.015625 5.222656 15.054688 5.222656 C 15.066406 5.222656 15.074219 5.222656 15.085938 5.222656 C 15.230469 5.238281 15.320312 5.503906 15.328125 5.746094 C 15.355469 6.898438 13.976562 9.019531 12.523438 9.613281 C 12.304688 9.703125 12.101562 9.785156 12.5625 12.558594 C 12.777344 13.835938 13.039062 15.109375 13.042969 15.121094 C 13.042969 15.132812 13.046875 15.140625 13.046875 15.148438 C 13.035156 15.21875 12.78125 15.347656 12.628906 15.347656 Z M 12.628906 15.347656"/><path style="stroke:none;fill-rule:nonzero;fill:#a1a1a1;fill-opacity:1" d="M 7.984375 1 C 10.175781 1 12.03125 2.75 12.03125 4.824219 L 12.03125 6.539062 C 12.03125 6.691406 12.101562 6.835938 12.21875 6.929688 C 12.308594 7 12.421875 7.039062 12.53125 7.039062 C 12.570312 7.039062 12.605469 7.035156 12.644531 7.027344 C 13.5 6.828125 14.148438 6.484375 14.746094 5.90625 C 14.882812 5.777344 14.976562 5.660156 15.050781 5.566406 C 15.0625 5.617188 15.074219 5.683594 15.078125 5.753906 C 15.089844 6.304688 14.765625 7.078125 14.210938 7.828125 C 13.667969 8.558594 12.984375 9.152344 12.425781 9.382812 C 11.996094 9.558594 11.867188 9.898438 12.316406 12.597656 C 12.492188 13.65625 12.703125 14.707031 12.773438 15.054688 C 12.726562 15.078125 12.667969 15.09375 12.636719 15.097656 C 12.539062 15.078125 12.265625 14.9375 12.070312 14.832031 C 11.558594 14.558594 10.925781 14.222656 10.265625 14.222656 C 9.660156 14.222656 9.230469 14.496094 8.851562 14.738281 C 8.558594 14.925781 8.304688 15.085938 8.007812 15.097656 C 7.671875 15.085938 7.429688 14.929688 7.121094 14.730469 C 6.757812 14.492188 6.34375 14.222656 5.746094 14.222656 C 5.082031 14.222656 4.445312 14.558594 3.933594 14.832031 C 3.734375 14.9375 3.464844 15.078125 3.363281 15.097656 C 3.328125 15.09375 3.273438 15.078125 3.226562 15.054688 C 3.296875 14.710938 3.507812 13.65625 3.683594 12.601562 C 4.132812 9.898438 4 9.558594 3.570312 9.382812 C 3.015625 9.15625 2.332031 8.5625 1.789062 7.832031 C 1.234375 7.082031 0.910156 6.304688 0.925781 5.753906 C 0.925781 5.679688 0.9375 5.613281 0.953125 5.5625 C 1.023438 5.65625 1.125 5.773438 1.261719 5.90625 C 1.941406 6.566406 2.5 6.859375 3.390625 7.027344 C 3.421875 7.035156 3.453125 7.039062 3.484375 7.039062 C 3.597656 7.039062 3.710938 6.996094 3.800781 6.921875 C 3.917969 6.828125 3.984375 6.6875 3.984375 6.539062 L 3.984375 4.824219 C 3.984375 3.855469 4.390625 2.890625 5.097656 2.175781 C 5.84375 1.417969 6.871094 1 7.984375 1 M 7.984375 0.5 C 5.332031 0.5 3.484375 2.589844 3.484375 4.824219 L 3.484375 6.539062 C 2.660156 6.382812 2.195312 6.113281 1.609375 5.546875 C 1.253906 5.207031 1.214844 4.972656 0.949219 4.972656 C 0.929688 4.972656 0.914062 4.972656 0.890625 4.976562 C 0.566406 5.011719 0.433594 5.414062 0.425781 5.742188 C 0.386719 7.183594 2.046875 9.300781 3.382812 9.847656 C 3.757812 10 2.710938 15.074219 2.710938 15.074219 C 2.609375 15.398438 3.140625 15.597656 3.367188 15.597656 C 3.820312 15.597656 4.828125 14.722656 5.742188 14.722656 C 6.648438 14.722656 7.046875 15.578125 8.007812 15.59375 C 8.902344 15.578125 9.355469 14.722656 10.261719 14.722656 C 11.175781 14.722656 12.175781 15.597656 12.628906 15.597656 C 12.855469 15.597656 13.390625 15.398438 13.285156 15.074219 C 13.285156 15.074219 12.238281 10 12.617188 9.847656 C 13.949219 9.300781 15.613281 7.183594 15.574219 5.742188 C 15.566406 5.414062 15.433594 5.011719 15.109375 4.976562 C 15.089844 4.972656 15.070312 4.972656 15.050781 4.972656 C 14.785156 4.972656 14.75 5.207031 14.398438 5.546875 C 13.808594 6.113281 13.214844 6.382812 12.53125 6.539062 L 12.53125 4.824219 C 12.53125 2.550781 10.542969 0.5 7.984375 0.5 Z M 7.984375 0.5"/><g clip-path="url(#clip1)" clip-rule="nonzero"><g clip-path="url(#clip2)" clip-rule="nonzero"><path style="stroke:none;fill-rule:nonzero;fill:#242424;fill-opacity:1" d="M 8 7.710938 C 6.808594 7.710938 5.707031 7.613281 4.785156 7.441406 C 4.554688 7.398438 4.351562 7.601562 4.398438 7.828125 C 4.707031 9.328125 6.179688 10.558594 7.996094 10.558594 C 9.984375 10.558594 11.324219 9.289062 11.601562 7.824219 C 11.640625 7.597656 11.441406 7.398438 11.214844 7.441406 C 10.292969 7.613281 9.1875 7.710938 8 7.710938 Z M 8 7.710938"/><use mask="url(#mask0)" xlink:href="#surface5"/></g></g><g clip-path="url(#clip4)" clip-rule="nonzero"><g clip-path="url(#clip5)" clip-rule="nonzero"><path style="stroke:none;fill-rule:nonzero;fill:#e04c74;fill-opacity:1" d="M 8.375 11.984375 L 7.761719 11.984375 C 6.957031 11.984375 6.304688 11.332031 6.304688 10.53125 L 6.304688 6.753906 L 9.828125 6.753906 L 9.828125 10.53125 C 9.828125 11.332031 9.175781 11.984375 8.375 11.984375 Z M 8.375 11.984375"/></g></g><g clip-path="url(#clip6)" clip-rule="nonzero"><g clip-path="url(#clip7)" clip-rule="nonzero"><use mask="url(#mask1)" xlink:href="#surface8"/><use mask="url(#mask2)" xlink:href="#surface11"/></g></g><path style="stroke:none;fill-rule:nonzero;fill:#fff;fill-opacity:1" d="M 11.519531 5.234375 C 11.519531 6.324219 10.636719 7.207031 9.546875 7.207031 C 8.453125 7.207031 7.570312 6.324219 7.570312 5.234375 C 7.570312 4.140625 8.453125 3.257812 9.546875 3.257812 C 10.636719 3.257812 11.519531 4.140625 11.519531 5.234375 Z M 11.519531 5.234375"/><path style="stroke:none;fill-rule:nonzero;fill:#a1a1a1;fill-opacity:1" d="M 9.546875 3.757812 C 10.359375 3.757812 11.019531 4.421875 11.019531 5.234375 C 11.019531 6.046875 10.359375 6.710938 9.546875 6.710938 C 8.730469 6.710938 8.070312 6.046875 8.070312 5.234375 C 8.070312 4.421875 8.730469 3.757812 9.546875 3.757812 M 9.546875 3.257812 C 8.453125 3.257812 7.570312 4.140625 7.570312 5.234375 C 7.570312 6.324219 8.453125 7.210938 9.546875 7.210938 C 10.636719 7.210938 11.519531 6.324219 11.519531 5.234375 C 11.519531 4.140625 10.636719 3.257812 9.546875 3.257812 Z M 9.546875 3.257812"/><path style="stroke:none;fill-rule:nonzero;fill:#242424;fill-opacity:1" d="M 10.234375 5.234375 C 10.234375 4.84375 9.925781 4.53125 9.546875 4.53125 C 9.164062 4.53125 8.855469 4.84375 8.855469 5.234375 C 8.855469 5.621094 9.164062 5.933594 9.546875 5.933594 C 9.925781 5.933594 10.234375 5.621094 10.234375 5.234375 Z M 10.234375 5.234375"/><path style="stroke:none;fill-rule:nonzero;fill:#242424;fill-opacity:1" d="M 6.761719 6.03125 C 6.761719 6.03125 6.753906 6.027344 6.734375 6.019531 C 6.730469 6.015625 6.71875 6.011719 6.707031 6.007812 C 6.699219 6.003906 6.691406 6 6.679688 6 C 6.660156 5.992188 6.628906 5.984375 6.59375 5.972656 C 6.558594 5.964844 6.519531 5.957031 6.472656 5.949219 C 6.382812 5.929688 6.273438 5.921875 6.15625 5.917969 C 6.039062 5.917969 5.910156 5.925781 5.78125 5.945312 C 5.757812 5.949219 5.707031 5.953125 5.683594 5.957031 C 5.65625 5.964844 5.625 5.96875 5.59375 5.976562 C 5.53125 5.988281 5.472656 6.003906 5.417969 6.019531 C 5.300781 6.054688 5.203125 6.09375 5.117188 6.136719 C 5.039062 6.175781 4.976562 6.214844 4.933594 6.242188 C 4.914062 6.253906 4.898438 6.265625 4.886719 6.273438 C 4.878906 6.28125 4.871094 6.289062 4.871094 6.289062 L 4.84375 6.304688 C 4.742188 6.382812 4.597656 6.359375 4.523438 6.257812 C 4.460938 6.175781 4.464844 6.0625 4.523438 5.984375 C 4.523438 5.984375 4.527344 5.976562 4.542969 5.957031 C 4.554688 5.941406 4.574219 5.914062 4.601562 5.886719 C 4.628906 5.855469 4.660156 5.820312 4.703125 5.785156 C 4.742188 5.75 4.789062 5.710938 4.84375 5.675781 C 4.949219 5.601562 5.082031 5.53125 5.230469 5.476562 C 5.300781 5.449219 5.378906 5.421875 5.457031 5.402344 C 5.496094 5.394531 5.539062 5.386719 5.582031 5.375 C 5.628906 5.367188 5.652344 5.363281 5.703125 5.355469 C 5.863281 5.332031 6.03125 5.328125 6.1875 5.339844 C 6.34375 5.355469 6.492188 5.386719 6.613281 5.425781 C 6.675781 5.449219 6.734375 5.472656 6.78125 5.496094 C 6.832031 5.515625 6.867188 5.542969 6.90625 5.566406 C 6.925781 5.578125 6.941406 5.585938 6.957031 5.597656 C 6.964844 5.605469 6.976562 5.613281 6.980469 5.617188 C 6.996094 5.628906 7.003906 5.632812 7.003906 5.632812 C 7.101562 5.714844 7.117188 5.859375 7.039062 5.960938 C 6.96875 6.046875 6.855469 6.070312 6.761719 6.03125 Z M 6.761719 6.03125"/><path style="stroke:none;fill-rule:nonzero;fill:#242424;fill-opacity:1" d="M 6.699219 5.945312 C 6.699219 5.945312 6.691406 5.941406 6.679688 5.925781 C 6.664062 5.914062 6.648438 5.902344 6.628906 5.886719 C 6.585938 5.851562 6.523438 5.796875 6.441406 5.734375 C 6.355469 5.675781 6.257812 5.605469 6.144531 5.535156 C 6.089844 5.5 6.03125 5.464844 5.972656 5.425781 C 5.914062 5.390625 5.847656 5.355469 5.789062 5.324219 C 5.722656 5.285156 5.664062 5.25 5.601562 5.21875 C 5.542969 5.1875 5.480469 5.15625 5.421875 5.125 C 5.300781 5.066406 5.191406 5.015625 5.097656 4.976562 C 5.003906 4.933594 4.925781 4.90625 4.871094 4.886719 C 4.820312 4.871094 4.789062 4.859375 4.789062 4.859375 L 4.765625 4.855469 C 4.644531 4.816406 4.578125 4.683594 4.617188 4.5625 C 4.648438 4.460938 4.742188 4.398438 4.84375 4.402344 C 4.84375 4.402344 4.855469 4.402344 4.875 4.402344 C 4.898438 4.402344 4.929688 4.40625 4.964844 4.410156 C 5.042969 4.417969 5.148438 4.433594 5.265625 4.464844 C 5.386719 4.496094 5.523438 4.542969 5.660156 4.597656 C 5.730469 4.628906 5.800781 4.660156 5.871094 4.695312 C 5.941406 4.730469 6.015625 4.769531 6.078125 4.800781 C 6.152344 4.84375 6.21875 4.886719 6.285156 4.925781 C 6.351562 4.96875 6.414062 5.015625 6.476562 5.058594 C 6.597656 5.148438 6.703125 5.242188 6.792969 5.328125 C 6.878906 5.414062 6.949219 5.496094 6.992188 5.558594 C 7.019531 5.589844 7.039062 5.617188 7.046875 5.632812 C 7.054688 5.648438 7.058594 5.65625 7.058594 5.65625 C 7.125 5.765625 7.089844 5.910156 6.980469 5.976562 C 6.890625 6.03125 6.773438 6.015625 6.699219 5.945312 Z M 6.699219 5.945312"/></g></svg>

<svg xmlns="http://www.w3.org/2000/svg" xmlns:xlink="http://www.w3.org/1999/xlink" width="16pt" height="16pt" viewBox="0 0 16 16"><defs><clipPath id="f"><path d="M4 7h8v4H4Zm0 0"/></clipPath><clipPath id="g"><path d="M8 7.71c-1.191 0-2.293-.097-3.215-.269a.33.33 0 0 0-.387.387c.309 1.5 1.782 2.73 3.598 2.73 1.988 0 3.328-1.269 3.606-2.734a.332.332 0 0 0-.387-.383c-.922.172-2.027.27-3.215.27m0 0"/></clipPath><clipPath id="b"><path d="M0 0h16v16H0z"/></clipPath><clipPath id="j"><path d="M6 7h4v5H6Zm0 0"/></clipPath><clipPath id="k"><path d="M4.785 7.89v4.13h6.36V7.89c-.946.165-2.032.255-3.145.255s-2.2-.086-3.14-.25"/></clipPath><clipPath id="l"><path d="M4 7h8v6H4Zm0 0"/></clipPath><clipPath id="m"><path d="M4.785 7.89v4.13h6.36V7.89c-.946.165-2.032.255-3.145.255s-2.2-.086-3.14-.25"/></clipPath><clipPath id="c"><path d="M0 0h16v16H0z"/></clipPath><clipPath id="d"><path d="M0 0h16v16H0z"/></clipPath><mask id="h"><g filter="url(#a)"><path d="M0 0h16v16H0z" style="fill:#000;fill-opacity:.2;stroke:none"/></g></mask><mask id="n"><g filter="url(#a)"><path d="M0 0h16v16H0z" style="fill:#000;fill-opacity:.301961;stroke:none"/></g></mask><mask id="p"><g filter="url(#a)"><path d="M0 0h16v16H0z" style="fill:#000;fill-opacity:.301961;stroke:none"/></g></mask><g id="i" clip-path="url(#b)"><path d="M11.219 7.824a2.9 2.9 0 0 1-1.016 1.625c-.594.48-1.355.735-2.207.735-1.531 0-2.898-1.012-3.215-2.36.961.172 2.074.262 3.219.262s2.258-.09 3.219-.262m.058-.386q-.032 0-.062.003c-.922.172-2.027.27-3.215.27-1.191 0-2.293-.098-3.215-.27q-.034-.004-.062-.003a.33.33 0 0 0-.325.39c.309 1.5 1.782 2.73 3.598 2.73 1.988 0 3.328-1.269 3.606-2.734a.328.328 0 0 0-.325-.386m0 0" style="stroke:none;fill-rule:nonzero;fill:#000;fill-opacity:1"/></g><g id="o" clip-path="url(#c)"><path d="M9.473 7.11v3.421c0 .606-.493 1.098-1.098 1.098h-.613A1.1 1.1 0 0 1 6.66 10.53V7.11zm.355-.355H6.305v3.777c0 .801.652 1.453 1.457 1.453h.613c.8 0 1.453-.652 1.453-1.453Zm0 0" style="stroke:none;fill-rule:nonzero;fill:#ab3f2e;fill-opacity:1"/></g><g id="q" clip-path="url(#d)"><path d="M64.531 54.031v25.532" style="fill:none;stroke-width:3;stroke-linecap:round;stroke-linejoin:miter;stroke:#ab3f2e;stroke-opacity:1;stroke-miterlimit:10" transform="scale(.125)"/></g><linearGradient id="e" x1="64" x2="64" y1="8.531" y2="121.13" gradientTransform="scale(.125)" gradientUnits="userSpaceOnUse"><stop offset=".001" style="stop-color:#c7c7c7;stop-opacity:1"/><stop offset=".28" style="stop-color:#cacaca;stop-opacity:1"/><stop offset=".525" style="stop-color:#d5d5d5;stop-opacity:1"/><stop offset=".758" style="stop-color:#e7e7e7;stop-opacity:1"/><stop offset=".947" style="stop-color:#fcfcfc;stop-opacity:1"/></linearGradient><filter id="a" width="100%" height="100%" x="0%" y="0%" filterUnits="objectBoundingBox"><feColorMatrix in="SourceGraphic" values="0 0 0 0 1 0 0 0 0 1 0 0 0 0 1 0 0 0 1 0"/></filter></defs><path d="M12.629 15.348c-.125 0-.418-.157-.676-.297-.488-.258-1.094-.578-1.691-.578-.532 0-.926.254-1.278.476-.312.2-.609.387-.984.395-.402-.008-.7-.203-1.016-.406-.355-.231-.718-.465-1.242-.465-.597 0-1.207.32-1.695.578-.258.136-.559.293-.684.293-.148 0-.402-.125-.414-.192 0-.007.004-.023.008-.03 0-.013.266-1.29.477-2.567.46-2.77.257-2.852.043-2.942C2.02 9.02.64 6.898.676 5.75c.004-.246.097-.512.242-.523q.019-.005.031-.004c.043 0 .055.007.18.164.074.093.168.207.305.34.64.62 1.168.898 2.003 1.058.016 0 .032.004.047.004q.09 0 .157-.059a.25.25 0 0 0 .093-.19V4.823c0-1.035.43-2.062 1.184-2.824.8-.805 1.887-1.25 3.066-1.25 2.332 0 4.301 1.867 4.301 4.074V6.54c0 .074.035.149.094.195a.25.25 0 0 0 .156.055q.025-.001.055-.008c.808-.183 1.422-.511 1.984-1.054.137-.133.23-.25.305-.344.129-.16.137-.16.176-.16h.03c.145.015.235.28.243.523.027 1.152-1.351 3.274-2.805 3.867-.218.09-.421.172.04 2.946.214 1.277.476 2.55.48 2.562 0 .012.004.02.004.027-.012.07-.266.2-.418.2m0 0" style="stroke:none;fill-rule:nonzero;fill:url(#e)"/><path d="M7.984 1c2.192 0 4.047 1.75 4.047 3.824V6.54a.502.502 0 0 0 .614.488c.855-.199 1.503-.543 2.101-1.12.137-.13.23-.247.305-.34.011.05.023.117.027.187.012.55-.312 1.324-.867 2.074-.543.73-1.227 1.324-1.785 1.555-.43.176-.559.515-.11 3.215a75 75 0 0 0 .457 2.457.5.5 0 0 1-.136.043c-.098-.02-.371-.16-.567-.266-.511-.273-1.144-.61-1.804-.61-.606 0-1.036.274-1.414.516-.293.188-.547.348-.844.36-.336-.012-.578-.168-.887-.368-.363-.238-.777-.507-1.375-.507-.664 0-1.3.336-1.812.609-.2.105-.47.246-.57.266a.5.5 0 0 1-.137-.043c.07-.344.28-1.399.457-2.453.449-2.704.316-3.043-.114-3.22-.554-.226-1.238-.82-1.78-1.55-.556-.75-.88-1.527-.864-2.078q.002-.113.027-.191.104.141.309.343c.68.66 1.238.953 2.129 1.121a.4.4 0 0 0 .093.012.5.5 0 0 0 .317-.117.49.49 0 0 0 .183-.383V4.824c0-.969.407-1.933 1.114-2.648C5.844 1.418 6.87 1 7.984 1m0-.5c-2.652 0-4.5 2.09-4.5 4.324V6.54c-.824-.156-1.289-.426-1.875-.992-.355-.34-.394-.574-.66-.574-.02 0-.035 0-.058.004-.325.035-.457.437-.465.765-.04 1.442 1.62 3.559 2.957 4.106.375.152-.672 5.226-.672 5.226-.102.324.43.524.656.524.453 0 1.461-.875 2.375-.875.906 0 1.305.855 2.266.87.894-.015 1.347-.87 2.254-.87.914 0 1.914.875 2.367.875.226 0 .762-.2.656-.524 0 0-1.047-5.074-.668-5.226 1.332-.547 2.996-2.664 2.957-4.106-.008-.328-.14-.73-.465-.765q-.03-.005-.058-.004c-.266 0-.301.234-.653.574-.59.566-1.183.836-1.867.992V4.824C12.531 2.551 10.543.5 7.984.5m0 0" style="stroke:none;fill-rule:nonzero;fill:#a1a1a1;fill-opacity:1"/><g clip-path="url(#f)"><g clip-path="url(#g)"><path d="M8 7.71c-1.191 0-2.293-.097-3.215-.269a.33.33 0 0 0-.387.387c.309 1.5 1.782 2.73 3.598 2.73 1.988 0 3.328-1.269 3.606-2.734a.332.332 0 0 0-.387-.383c-.922.172-2.027.27-3.215.27m0 0" style="stroke:none;fill-rule:nonzero;fill:#242424;fill-opacity:1"/><use xlink:href="#i" mask="url(#h)"/></g></g><g clip-path="url(#j)"><g clip-path="url(#k)"><path d="M8.375 11.984h-.613a1.456 1.456 0 0 1-1.457-1.453V6.754h3.523v3.777c0 .801-.652 1.453-1.453 1.453m0 0" style="stroke:none;fill-rule:nonzero;fill:#e04c74;fill-opacity:1"/></g></g><g clip-path="url(#l)"><g clip-path="url(#m)"><use xlink:href="#o" mask="url(#n)"/><use xlink:href="#q" mask="url(#p)"/></g></g><path d="M11.52 5.234c0 1.09-.883 1.973-1.973 1.973a1.974 1.974 0 1 1 1.973-1.973m0 0" style="stroke:none;fill-rule:nonzero;fill:#fff;fill-opacity:1"/><path d="M9.547 3.758a1.477 1.477 0 0 1 0 2.953A1.48 1.48 0 0 1 8.07 5.234c0-.812.66-1.476 1.477-1.476m0-.5a1.976 1.976 0 1 0 0 3.953c1.09 0 1.973-.887 1.973-1.977a1.973 1.973 0 0 0-1.973-1.976m0 0" style="stroke:none;fill-rule:nonzero;fill:#a1a1a1;fill-opacity:1"/><path d="M10.234 5.234a.694.694 0 0 0-.687-.703.695.695 0 0 0-.692.703c0 .387.31.7.692.7a.694.694 0 0 0 .687-.7M6.762 6.031l-.028-.011q-.007-.006-.027-.012A.1.1 0 0 0 6.68 6q-.032-.011-.086-.027a2.3 2.3 0 0 0-.438-.055c-.117 0-.246.008-.375.027-.023.004-.074.008-.097.012-.028.008-.059.012-.09.02a2 2 0 0 0-.477.16 2 2 0 0 0-.183.105l-.047.031-.016.016-.027.016a.226.226 0 0 1-.32-.047.23.23 0 0 1 0-.274s.003-.007.019-.027c.012-.016.031-.043.059-.07a1 1 0 0 1 .101-.102q.06-.054.14-.11c.106-.073.239-.144.387-.198.07-.028.149-.055.227-.075q.06-.01.125-.027l.121-.02c.16-.023.328-.027.484-.015.157.015.305.047.426.086q.096.035.168.07c.051.02.086.047.125.07q.028.016.051.032c.008.007.02.015.023.02l.024.015a.24.24 0 0 1 .035.328.24.24 0 0 1-.277.07m0 0" style="stroke:none;fill-rule:nonzero;fill:#242424;fill-opacity:1"/><path d="M6.7 5.945s-.009-.004-.02-.02l-.051-.038c-.043-.035-.106-.09-.188-.153-.086-.058-.183-.129-.296-.199q-.084-.051-.172-.11c-.059-.034-.125-.07-.184-.1-.066-.04-.125-.075-.187-.106-.059-.032-.122-.063-.18-.094a7 7 0 0 0-.324-.148c-.094-.043-.172-.07-.227-.09-.05-.016-.082-.028-.082-.028l-.023-.004a.234.234 0 0 1-.149-.293.226.226 0 0 1 .227-.16h.031q.036.001.09.008c.078.008.183.024.3.055.122.031.258.078.395.133q.105.045.211.097l.207.106c.074.043.14.086.207.125q.1.066.192.133c.12.09.226.183.316.27.086.085.156.167.2.23a.4.4 0 0 1 .066.097.234.234 0 0 1-.079.32.24.24 0 0 1-.28-.03m0 0" style="stroke:none;fill-rule:nonzero;fill:#242424;fill-opacity:1"/></svg>
